public/assets/images/field-i02.svg

<svg width="18" height="18" viewBox="0 0 18 18" fill="none" xmlns="http://www.w3.org/2000/svg">
<path d="M4.473 10.968H1.35L0.882 12.165C0.864 12.213 0.831 12.264 0.783 12.318C0.735 12.366 0.651 12.39 0.531 12.39H0.198C0.144 12.39 0.0959999 12.372 0.0539999 12.336C0.0179999 12.294 0 12.246 0 12.192C0 12.162 0.012 12.12 0.036 12.066L2.241 6.387C2.271 6.321 2.316 6.255 2.376 6.189C2.436 6.123 2.526 6.09 2.646 6.09H3.186C3.306 6.09 3.396 6.123 3.456 6.189C3.516 6.255 3.561 6.321 3.591 6.387L5.787 12.066C5.811 12.12 5.823 12.162 5.823 12.192C5.823 12.246 5.802 12.294 5.76 12.336C5.724 12.372 5.679 12.39 5.625 12.39H5.292C5.172 12.39 5.088 12.366 5.04 12.318C4.992 12.264 4.959 12.213 4.941 12.165L4.473 10.968ZM1.665 10.158H4.158L2.916 6.945L1.665 10.158Z" fill="#4F66EE"/>
<path d="M7.60219 9.528V11.58H9.43819C9.63619 11.58 9.81019 11.553 9.96019 11.499C10.1162 11.445 10.2452 11.37 10.3472 11.274C10.4492 11.178 10.5242 11.07 10.5722 10.95C10.6262 10.83 10.6532 10.701 10.6532 10.563C10.6532 10.431 10.6292 10.302 10.5812 10.176C10.5332 10.05 10.4582 9.939 10.3562 9.843C10.2602 9.747 10.1342 9.672 9.97819 9.618C9.82819 9.558 9.64819 9.528 9.43819 9.528H7.60219ZM7.60219 6.9V8.718H9.31219C9.71419 8.718 10.0142 8.64 10.2122 8.484C10.4162 8.328 10.5182 8.103 10.5182 7.809C10.5182 7.515 10.4162 7.29 10.2122 7.134C10.0142 6.978 9.71419 6.9 9.31219 6.9H7.60219ZM6.99019 12.39C6.92419 12.39 6.86719 12.366 6.81919 12.318C6.77119 12.27 6.74719 12.213 6.74719 12.147V6.333C6.74719 6.267 6.77119 6.21 6.81919 6.162C6.86719 6.114 6.92419 6.09 6.99019 6.09H9.40219C9.78619 6.09 10.1042 6.15 10.3562 6.27C10.6082 6.384 10.8092 6.528 10.9592 6.702C11.1092 6.87 11.2142 7.053 11.2742 7.251C11.3402 7.449 11.3732 7.626 11.3732 7.782C11.3732 7.98 11.3432 8.154 11.2832 8.304C11.2232 8.454 11.1512 8.58 11.0672 8.682C10.9892 8.784 10.9082 8.865 10.8242 8.925C10.7462 8.985 10.6892 9.027 10.6532 9.051C10.8812 9.207 11.0792 9.414 11.2472 9.672C11.4212 9.924 11.5082 10.221 11.5082 10.563C11.5082 10.791 11.4662 11.013 11.3822 11.229C11.2982 11.445 11.1722 11.64 11.0042 11.814C10.8422 11.988 10.6352 12.129 10.3832 12.237C10.1372 12.339 9.85219 12.39 9.52819 12.39H6.99019Z" fill="#4F66EE"/>
<path d="M13.3711 8.484C13.3591 8.754 13.3531 9.006 13.3531 9.24C13.3531 9.474 13.3591 9.726 13.3711 9.996C13.3891 10.494 13.5391 10.899 13.8211 11.211C14.1091 11.517 14.5201 11.67 15.0541 11.67C15.3421 11.67 15.5851 11.634 15.7831 11.562C15.9811 11.49 16.1431 11.397 16.2691 11.283C16.4011 11.169 16.5001 11.04 16.5661 10.896C16.6381 10.746 16.6921 10.596 16.7281 10.446C16.7401 10.38 16.7701 10.332 16.8181 10.302C16.8661 10.266 16.9141 10.248 16.9621 10.248H17.3761C17.4301 10.248 17.4751 10.269 17.5111 10.311C17.5531 10.347 17.5741 10.392 17.5741 10.446C17.5681 10.644 17.5171 10.86 17.4211 11.094C17.3251 11.328 17.1751 11.55 16.9711 11.76C16.7731 11.964 16.5151 12.135 16.1971 12.273C15.8851 12.411 15.5041 12.48 15.0541 12.48C14.6641 12.48 14.3161 12.42 14.0101 12.3C13.7041 12.174 13.4401 12.003 13.2181 11.787C13.0021 11.571 12.8341 11.316 12.7141 11.022C12.5941 10.722 12.5281 10.395 12.5161 10.041C12.4981 9.507 12.4981 8.973 12.5161 8.439C12.5281 8.091 12.5941 7.767 12.7141 7.467C12.8341 7.167 13.0021 6.909 13.2181 6.693C13.4401 6.477 13.7041 6.309 14.0101 6.189C14.3161 6.063 14.6641 6 15.0541 6C15.5041 6 15.8851 6.069 16.1971 6.207C16.5151 6.345 16.7731 6.519 16.9711 6.729C17.1751 6.933 17.3251 7.152 17.4211 7.386C17.5171 7.62 17.5681 7.836 17.5741 8.034C17.5741 8.088 17.5531 8.136 17.5111 8.178C17.4751 8.214 17.4301 8.232 17.3761 8.232H16.9621C16.9141 8.232 16.8661 8.217 16.8181 8.187C16.7701 8.151 16.7401 8.1 16.7281 8.034C16.6921 7.884 16.6381 7.737 16.5661 7.593C16.5001 7.443 16.4011 7.311 16.2691 7.197C16.1431 7.083 15.9811 6.99 15.7831 6.918C15.5851 6.846 15.3421 6.81 15.0541 6.81C14.5201 6.81 14.1091 6.966 13.8211 7.278C13.5391 7.584 13.3891 7.986 13.3711 8.484Z" fill="#4F66EE"/>
</svg>

<svg width="18" height="18" fill="none" xmlns="http://www.w3.org/2000/svg"><path d="M4.473 10.968H1.35l-.468 1.197a.505.505 0 01-.099.153c-.048.048-.132.072-.252.072H.198a.215.215 0 01-.144-.054.215.215 0 01-.054-.144.34.34 0 01.036-.126l2.205-5.679a.775.775 0 01.135-.198c.06-.066.15-.099.27-.099h.54c.12 0 .21.033.27.099.06.066.105.132.135.198l2.196 5.679a.34.34 0 01.036.126.198.198 0 01-.063.144.183.183 0 01-.135.054h-.333c-.12 0-.204-.024-.252-.072a.505.505 0 01-.099-.153l-.468-1.197zm-2.808-.81h2.493L2.916 6.945l-1.251 3.213zM7.602 9.528v2.052h1.836c.198 0 .372-.027.522-.081.156-.054.285-.129.387-.225a.904.904 0 00.225-.324.932.932 0 00.081-.387c0-.132-.024-.261-.072-.387a.976.976 0 00-.603-.558c-.15-.06-.33-.09-.54-.09H7.602zm0-2.628v1.818h1.71c.402 0 .702-.078.9-.234.204-.156.306-.381.306-.675 0-.294-.102-.519-.306-.675-.198-.156-.498-.234-.9-.234h-1.71zm-.612 5.49a.234.234 0 01-.17-.072.234.234 0 01-.073-.171V6.333c0-.066.024-.123.072-.171a.234.234 0 01.171-.072h2.412c.384 0 .702.06.954.18.252.114.453.258.603.432.15.168.255.351.315.549.066.198.1.375.1.531a1.399 1.399 0 01-.307.9 1.163 1.163 0 01-.243.243c-.078.06-.135.102-.17.126.227.156.425.363.593.621.174.252.261.549.261.891 0 .228-.042.45-.126.666a1.75 1.75 0 01-.378.585 1.806 1.806 0 01-.62.423 2.219 2.219 0 01-.856.153H6.99zM13.371 8.484c-.012.27-.018.522-.018.756 0 .234.006.486.018.756.018.498.168.903.45 1.215.288.306.7.459 1.233.459.288 0 .531-.036.73-.108.197-.072.36-.165.485-.279.132-.114.231-.243.297-.387.072-.15.126-.3.162-.45a.203.203 0 01.09-.144.24.24 0 01.144-.054h.414a.17.17 0 01.135.063.17.17 0 01.063.135 1.87 1.87 0 01-.153.648 2.109 2.109 0 01-.45.666 2.386 2.386 0 01-.774.513c-.312.138-.693.207-1.143.207-.39 0-.738-.06-1.044-.18a2.47 2.47 0 01-.792-.513 2.296 2.296 0 01-.504-.765c-.12-.3-.186-.627-.198-.981a23.77 23.77 0 010-1.602c.012-.348.078-.672.198-.972.12-.3.288-.558.504-.774.222-.216.486-.384.792-.504A2.722 2.722 0 0115.054 6c.45 0 .831.069 1.143.207.318.138.576.312.774.522a2.01 2.01 0 01.603 1.305.198.198 0 01-.063.144.183.183 0 01-.135.054h-.414a.27.27 0 01-.144-.045.236.236 0 01-.09-.153 2.058 2.058 0 00-.162-.441 1.111 1.111 0 00-.297-.396 1.458 1.458 0 00-.486-.279 2.147 2.147 0 00-.729-.108c-.534 0-.945.156-1.233.468-.282.306-.432.708-.45 1.206z" fill="#4F66EE"/></svg>
